X:100
T:If Ever You Were Mine
R:waltz
C:Maurice Lennon
Z:alf.warnock@rogers.com
M:3/4
L:1/8
K:G
DE|G4 e2|d4 (3BAG|AB G4|{A}G4 DE|\
G4 e2|d4 Bd|d6-|d2 e2 f2|
g4 ed|g4 ed|e2 d3 B|AB G2 (3GFE|\
D4 ed|d4 (3BAG|DEG2{A}GA|G4:|
dc|B3 d (3BAG|d4 (3Bcd|c2 d2 e2|d4 (3Bcd|\
B3 d (3BAG|d4 (3Bcd|c2 d2 e2|de fd ef|
g2{a}g2 ed|g2{a}g2 ed|e2 d3 B|AB G2 (3GFE|\
D4 ed|d4 (3BAG|DE G2{A}GA|G4:|
